X:1
T:Old 124th, 10.10.10.10.10
T:Genevan Psalter, 1551
T:Old 124th, 10.10.10.10.10
T:Public Domain
C:Genevan Psalter, 1551
Z:Public Domain
%%score ( 1 2 ) ( 3 4 )
L:1/8
M:4/4
K:F
V:1 treble 
V:2 treble 
V:3 bass 
V:4 bass 
V:1
 [CF]4 [CG]2 [FA]2 | [FB]4 (F2 E2) | [DG]2 [DF]2 [CF]2 [CE]2 | [CF]8 | [CA]4 [FB]2 [Ec]2 | %5
 [Dd]4 [Ec]4 | [FB]2 [FA]2 [DG]2 [DF]2 x | [CE]8 | C4 [A,F]2 [=B,F]2 | [CE]4 F4 | %10
 [DG]2 [DB]2 [FA]2 [DG]2 | [EA]8 | [Fc]4 [Fc]2 [GB]2 | [FA]4 (D2 E2) | A2 z E [Dc]2 [D=B]2 | %15
 [Ec]8 | (F2 E2) [DG]2 [DF]2 x |[M:6/4] [CE]4 F4 [DG]2 [GB]2 |[M:4/4] A4 z2 E2 x2 | F8 |] %20
V:2
 x8 | x4 A4 | x8 | x8 | x8 | x8 | x9 | x8 | C4 x4 | x4 F4 | x8 | x8 | x8 | x4 G4 | F3 c2 x3 | x8 | %16
 A4 x5 |[M:6/4] x12 |[M:4/4] F6 G4 | F8 |] %20
V:3
 [F,A,]4 [E,C]2 [F,C]2 | (B,,2 D,2) [F,C]4 | B,,2 z A, [C,G,]2 [C,G,]2 | z2 E,2 D,2 C,2 | %4
 F,2 E,2 (F,G,) [C,A,]2 | [B,,B,]4 (G,2 A,2) | [D,B,]2 [F,C]2 B,,2 z A, x | z2 B,,2 A,,2 G,,2 | %8
 [A,,F,]4 [D,F,]2 [D,F,]2 | (G,2 C2) B,2 A,2 | [B,,G,]2 [G,,G,]2 [A,,C]2 [B,,D]2 | (D4 ^C4) | %12
 [A,,C]4 [D,A,]2 [E,G,]2 | [F,C]4 B,4 | [A,C]3 [G,=B,] [F,A,]2 G,2 | (z2 B,,2 A,,2 G,,2) | %16
 [F,,F,]4 B,,2 z A, x |[M:6/4] [C,G,]4 [A,,C]4 [B,,D]2 [A,,B,]2 | %18
[M:4/4] [A,,C]2 [B,,D]2 [C,G,]4 x2 | [F,,A,]8 |] %20
V:4
 x8 | D4 x4 | C3 G,,2 x3 | [F,A,]8 | F,4 D,2 x2 | x4 C,4 | x4 B,3 G,,2 | [C,G,]8 | x8 | C,4 D,4 | %10
 x8 | A,,8 | x8 | x8 | x8 | [C,G,]8 | x4 B,3 G,,2 |[M:6/4] x12 |[M:4/4] x10 | x8 |] %20

